svg/300/outlined/panorama_wide_angle.svg

<svg xmlns="http://www.w3.org/2000/svg" width="48" height="48" viewBox="0 -960 960 960"><path d="M480-180.001q-90.231 0-176.115-8.5-85.884-8.5-167.73-29.193-19.077-64.384-27.615-129.653-8.539-65.269-8.539-132.653 0-67.384 8.539-132.653 8.538-65.269 27.615-129.653 76.308-18.846 161.269-28.27 84.961-9.423 182.576-9.423t182.576 9.423q84.961 9.424 161.269 28.27 19.077 64.384 27.615 129.653 8.539 65.269 8.539 132.653 0 67.384-8.847 132.653-8.846 65.269-27.307 129.653-81.846 20.693-167.73 29.193-85.884 8.5-176.115 8.5ZM480-480Zm0 254.615q82.005 0 157.563-6.885 75.557-6.884 150.206-23.115Q801.384-310.231 808-366.693q6.615-56.461 6.615-113.307 0-56.846-6.615-113.307-6.616-56.462-20.231-111.308-69-15-144.846-22.5T480-734.615q-87.016 0-163.172 7.5-76.156 7.5-144.597 22.5Q158.616-649.769 152-593.307q-6.615 56.461-6.615 113.307 0 56.846 6.615 113.307 6.616 56.462 20.231 111.308 74.649 16.231 150.206 23.115 75.558 6.885 157.563 6.885Z"/></svg>

<svg xmlns="http://www.w3.org/2000/svg" width="48" height="48" viewBox="0 -960 960 960"><path d="M480-180q-90.23 0-176.11-8.5Q218-197 136.16-217.69q-19.08-64.39-27.62-129.66Q100-412.62 100-480q0-67.38 8.54-132.65 8.54-65.27 27.62-129.66 76.3-18.84 161.26-28.27Q382.39-780 480-780q97.61 0 182.58 9.42 84.96 9.43 161.26 28.27 19.08 64.39 27.62 129.66Q860-547.38 860-480q0 67.38-8.85 132.65-8.84 65.27-27.31 129.66Q742-197 656.11-188.5 570.23-180 480-180Zm0-300Zm0 254.61q82.01 0 157.56-6.88 75.56-6.88 150.21-23.12 13.61-54.84 20.23-111.3 6.61-56.46 6.61-113.31T808-593.31q-6.62-56.46-20.23-111.3-69-15-144.85-22.5-75.84-7.5-162.92-7.5-87.02 0-163.17 7.5-76.16 7.5-144.6 22.5-13.61 54.84-20.23 111.3-6.61 56.46-6.61 113.31T152-366.69q6.62 56.46 20.23 111.3 74.65 16.24 150.21 23.12 75.55 6.88 157.56 6.88Z"/></svg>
